flaticon/emoticons/angry-3.svg

<svg xmlns="http://www.w3.org/2000/svg" width="32" height="32" viewBox="0 0 24 24">
    <path d="M 12 0 C 5.382812 0 0 5.382812 0 12 C 0 18.617188 5.382812 24 12 24 C 18.617188 24 24 18.617188 24 12 C 24 5.382812 18.617188 0 12 0 Z M 12 22.910156 C 5.984375 22.910156 1.089844 18.015625 1.089844 12 C 1.089844 5.984375 5.984375 1.089844 12 1.089844 C 18.015625 1.089844 22.910156 5.984375 22.910156 12 C 22.910156 18.015625 18.015625 22.910156 12 22.910156 Z M 12 22.910156"/>
    <path d="M12 12.546875C8.390625 12.546875 5.453125 15.480469 5.453125 19.089844 5.453125 19.390625 5.699219 19.636719 6 19.636719 6.300781 19.636719 6.546875 19.390625 6.546875 19.089844 6.546875 16.082031 8.992188 13.636719 12 13.636719 15.007812 13.636719 17.453125 16.082031 17.453125 19.089844 17.453125 19.390625 17.699219 19.636719 18 19.636719 18.300781 19.636719 18.546875 19.390625 18.546875 19.089844 18.546875 15.480469 15.609375 12.546875 12 12.546875zM9.390625 8.523438C9.5 8.65625 9.660156 8.726562 9.820312 8.726562 9.9375 8.726562 10.058594 8.6875 10.160156 8.609375 10.394531 8.417969 10.433594 8.078125 10.246094 7.839844L8.0625 5.113281C7.875 4.878906 7.53125 4.839844 7.296875 5.027344 7.058594 5.21875 7.023438 5.558594 7.210938 5.796875zM14.179688 8.726562C14.339844 8.726562 14.5 8.65625 14.609375 8.523438L16.789062 5.796875C16.976562 5.558594 16.9375 5.214844 16.703125 5.027344 16.46875 4.839844 16.125 4.878906 15.9375 5.113281L13.753906 7.839844C13.566406 8.078125 13.605469 8.421875 13.839844 8.609375 13.941406 8.6875 14.0625 8.726562 14.179688 8.726562zM14.179688 8.726562"/>
</svg>

<svg xmlns="http://www.w3.org/2000/svg" width="32" height="32" viewBox="0 0 24 24">
    <path d="M12 0C5.383 0 0 5.383 0 12s5.383 12 12 12 12-5.383 12-12S18.617 0 12 0zm0 22.91C5.984 22.91 1.09 18.016 1.09 12S5.984 1.09 12 1.09 22.91 5.984 22.91 12 18.016 22.91 12 22.91zm0 0"/>
    <path d="M12 12.547c-3.61 0-6.547 2.933-6.547 6.543 0 .3.246.547.547.547.3 0 .547-.246.547-.547A5.458 5.458 0 0 1 12 13.637a5.458 5.458 0 0 1 5.453 5.453c0 .3.246.547.547.547.3 0 .547-.246.547-.547 0-3.61-2.938-6.543-6.547-6.543zm0 0M9.39 8.523a.558.558 0 0 0 .77.086.55.55 0 0 0 .086-.77L8.062 5.114a.546.546 0 1 0-.851.684zm0 0M14.18 8.727c.16 0 .32-.07.43-.204l2.18-2.726a.546.546 0 1 0-.852-.684L13.753 7.84a.55.55 0 0 0 .086.77.56.56 0 0 0 .34.117zm0 0"/>
</svg>
